src/assets/duotone/CopySuccess.svg

<svg width="24" height="24" viewBox="0 0 24 24"  xmlns="http://www.w3.org/2000/svg">
<path opacity="0.4" d="M17.0998 2H12.8998C9.44976 2 8.04977 3.37 8.00977 6.75H11.0998C15.2998 6.75 17.2498 8.7 17.2498 12.9V15.99C20.6298 15.95 21.9998 14.55 21.9998 11.1V6.9C21.9998 3.4 20.5998 2 17.0998 2Z" />
<path d="M11.1 8H6.9C3.4 8 2 9.4 2 12.9V17.1C2 20.6 3.4 22 6.9 22H11.1C14.6 22 16 20.6 16 17.1V12.9C16 9.4 14.6 8 11.1 8ZM12.29 13.65L8.58 17.36C8.44 17.5 8.26 17.57 8.07 17.57C7.88 17.57 7.7 17.5 7.56 17.36L5.7 15.5C5.42 15.22 5.42 14.77 5.7 14.49C5.98 14.21 6.43 14.21 6.71 14.49L8.06 15.84L11.27 12.63C11.55 12.35 12 12.35 12.28 12.63C12.56 12.91 12.57 13.37 12.29 13.65Z" />
</svg>

<?xml version="1.0" encoding="UTF-8"?>
<svg width="24" height="24" viewBox="0 0 24 24" xmlns="http://www.w3.org/2000/svg">
 <path d="m17.1 2h-4.2c-3.45 0-4.85 1.37-4.89 4.75h3.09c4.2 0 6.15 1.95 6.15 6.15v3.09c3.38-0.04 4.75-1.44 4.75-4.89v-4.2c0-3.5-1.4-4.9-4.9-4.9z" opacity=".4"/>
 <path d="m11.1 8h-4.2c-3.5 0-4.9 1.4-4.9 4.9v4.2c0 3.5 1.4 4.9 4.9 4.9h4.2c3.5 0 4.9-1.4 4.9-4.9v-4.2c0-3.5-1.4-4.9-4.9-4.9zm1.19 5.65-3.71 3.71c-0.14 0.14-0.32 0.21-0.51 0.21s-0.37-0.07-0.51-0.21l-1.86-1.86c-0.28-0.28-0.28-0.73 0-1.01s0.73-0.28 1.01 0l1.35 1.35 3.21-3.21c0.28-0.28 0.73-0.28 1.01 0s0.29 0.74 0.01 1.02z"/>
</svg>
